X:1
T:Silent The Lonely Glen
S:Philippe Varlet  irtrad-l 2000-10-27
R:Air
C:Ed Reavy
M:2/4
L:1/8
Z:Joe Reavy
K:G
g/f/ \
| ed/B/ AG/A/ | B/d^c/    dg/f/ | ed/B/ AG/A/ | B/>A/G/F/ Eg/f/ |
| ed/B/ ba/g/ | g/f/e/^d/ eg/f/ | ed/B/ AG/A/ | BG/E/     Ee/f/ |
| ge/g/ ba/g/ | fd/f/     ag/f/ | ge/g/ ba/g/ | f/e^d/    ee/f/ |
| ge/g/ fd/f/ | ed/B/     Bg/f/ | ed/B/ AG/A/ | BG/E/ E ||
